X: 129
T: Xiu hebao
L: 1/8
M: 2/4
K: Eb
e c/ B/ c/ B/ A [I:setbarnb 1]| 
B4 | 
f2c e | 
f4 | 
e2c e | 
f2e2 | 
c f c/ B/ A | 
B4 | 
c/ f/ f f e | 
c2z2 | 
f2f2 | 
e2e2 | 
f c/ e/ c/ B/ A | 
B4 |]

@@@ Tune index: 9003
